dapp/src/images/polygon-beige-logo.svg

<svg fill="none" height="21" viewBox="0 0 24 21" width="24" xmlns="http://www.w3.org/2000/svg"><path d="m18.3483 6.76716c-.4244-.2537-.976-.2537-1.4428 0l-3.31 1.94503-2.2491 1.2685-3.30993 1.94501c-.42436.2537-.97602.2537-1.44281 0l-2.63099-1.5222c-.42436-.2537-.72141-.71879-.72141-1.22619v-3.00211c0-.5074.25462-.97252.72141-1.22622l2.58856-1.47991c.42435-.2537.97601-.2537 1.4428 0l2.58857 1.47991c.4243.2537.7214.71882.7214 1.22622v1.94503l2.2491-1.31078v-1.94504c0-.50739-.2546-.97251-.7214-1.22621l-4.79523-2.790699c-.42436-.253699-.97602-.253699-1.44281 0l-4.88007 2.790699c-.46679.2537-.721402.71882-.721402 1.22621v5.62369c0 .5074.254612.9725.721402 1.2262l4.88007 2.7907c.42436.2537.97602.2537 1.44281 0l3.30993-1.9027 2.2491-1.3108 3.31-1.90277c.4243-.2537.976-.2537 1.4428 0l2.5885 1.47987c.4244.2537.7214.7189.7214 1.2263v3.0021c0 .5074-.2546.9725-.7214 1.2262l-2.5885 1.5222c-.4244.2537-.976.2537-1.4428 0l-2.5886-1.4799c-.4243-.2537-.7214-.7188-.7214-1.2262v-1.9451l-2.2491 1.3108v1.945c0 .5074.2546.9726.7214 1.2263l4.8801 2.7907c.4244.2536.976.2536 1.4428 0l4.8801-2.7907c.4243-.2537.7214-.7189.7214-1.2263v-5.6236c0-.5074-.2546-.97256-.7214-1.22626z" fill="#fcdcbc"/></svg>

<svg width="24" height="21" viewBox="0 0 24 21" fill="none" xmlns="http://www.w3.org/2000/svg">
<path d="M18.3483 6.76716C17.9239 6.51346 17.3723 6.51346 16.9055 6.76716L13.5955 8.71219L11.3464 9.98069L8.03647 11.9257C7.61211 12.1794 7.06045 12.1794 6.59366 11.9257L3.96267 10.4035C3.53831 10.1498 3.24126 9.68471 3.24126 9.17731V6.1752C3.24126 5.6678 3.49588 5.20268 3.96267 4.94898L6.55123 3.46907C6.97558 3.21537 7.52724 3.21537 7.99403 3.46907L10.5826 4.94898C11.0069 5.20268 11.304 5.6678 11.304 6.1752V8.12023L13.5531 6.80945V4.86441C13.5531 4.35702 13.2985 3.8919 12.8317 3.6382L8.03647 0.847501C7.61211 0.593802 7.06045 0.593802 6.59366 0.847501L1.71359 3.6382C1.2468 3.8919 0.992188 4.35702 0.992188 4.86441V10.4881C0.992188 10.9955 1.2468 11.4606 1.71359 11.7143L6.59366 14.505C7.01802 14.7587 7.56968 14.7587 8.03647 14.505L11.3464 12.6023L13.5955 11.2915L16.9055 9.38873C17.3298 9.13503 17.8815 9.13503 18.3483 9.38873L20.9368 10.8686C21.3612 11.1223 21.6582 11.5875 21.6582 12.0949V15.097C21.6582 15.6044 21.4036 16.0695 20.9368 16.3232L18.3483 17.8454C17.9239 18.0991 17.3723 18.0991 16.9055 17.8454L14.3169 16.3655C13.8926 16.1118 13.5955 15.6467 13.5955 15.1393V13.1942L11.3464 14.505V16.45C11.3464 16.9574 11.601 17.4226 12.0678 17.6763L16.9479 20.467C17.3723 20.7206 17.9239 20.7206 18.3907 20.467L23.2708 17.6763C23.6951 17.4226 23.9922 16.9574 23.9922 16.45V10.8264C23.9922 10.319 23.7376 9.85384 23.2708 9.60014L18.3483 6.76716Z" fill="#FCDCBC"/>
</svg>
